packages/kaspersky-hexa-ui-icons/src/iconsSVGs/28x20/FlagFm.svg

<svg width="28" height="20" viewBox="0 0 28 20" fill="none" xmlns="http://www.w3.org/2000/svg">
<g clip-path="url(#clip0_5138_804)">
<rect width="28" height="20" rx="2" fill="white"/>
<mask id="mask0_5138_804" style="mask-type:luminance" maskUnits="userSpaceOnUse" x="0" y="0" width="28" height="20">
<rect width="28" height="20" rx="2" fill="white"/>
</mask>
<g mask="url(#mask0_5138_804)">
<rect width="28" height="20" fill="#95CEF5"/>
<path fill-rule="evenodd" clip-rule="evenodd" d="M12.4326 6.82405L14 5.76L15.5674 6.82405L15.0398 5.00453L16.5362 3.84262L14.6427 3.78214L14 2L13.3574 3.78214L11.4639 3.84262L12.9602 5.00453L12.4326 6.82405ZM12.4326 17.4907L14 16.4267L15.5674 17.4907L15.0398 15.6712L16.5362 14.5093L14.6427 14.4488L14 12.6667L13.3574 14.4488L11.4639 14.5093L12.9602 15.6712L12.4326 17.4907ZM19.3333 11.0933L17.7659 12.1574L18.2935 10.3379L16.7972 9.17595L18.6907 9.11547L19.3333 7.33333L19.976 9.11547L21.8695 9.17595L20.3732 10.3379L20.9008 12.1574L19.3333 11.0933ZM7.09925 12.1574L8.66667 11.0933L10.2341 12.1574L9.7065 10.3379L11.2028 9.17595L9.30932 9.11547L8.66667 7.33333L8.02403 9.11547L6.13052 9.17595L7.62685 10.3379L7.09925 12.1574Z" fill="white"/>
</g>
</g>
<defs>
<clipPath id="clip0_5138_804">
<rect width="28" height="20" fill="white"/>
</clipPath>
</defs>
</svg>

<svg xmlns="http://www.w3.org/2000/svg" width="28" height="20" fill="none" viewBox="0 0 28 20"><g clip-path="url(#a)"><rect width="28" height="20" fill="#fff" rx="2"/><mask id="b" width="28" height="20" x="0" y="0" maskUnits="userSpaceOnUse" style="mask-type:luminance"><rect width="28" height="20" fill="#fff" rx="2"/></mask><g mask="url(#b)"><path fill="#95cef5" d="M0 0h28v20H0z"/><path fill="#fff" fill-rule="evenodd" d="M12.4326 6.824 14 5.76l1.5674 1.064-.5276-1.8195 1.4964-1.1619-1.8935-.0605L14 2l-.6426 1.7821-1.8935.0605 1.4963 1.162zm0 10.6667L14 16.4267l1.5674 1.064-.5276-1.8195 1.4964-1.1619-1.8935-.0605L14 12.6667l-.6426 1.7821-1.8935.0605 1.4963 1.1619zm6.9007-6.3974-1.5674 1.0641.5276-1.8195-1.4963-1.162 1.8935-.0604.6426-1.7822.6427 1.7822 1.8935.0604-1.4963 1.162.5276 1.8195zm-12.234 1.0641 1.5674-1.0641 1.5674 1.0641-.5276-1.8195 1.4963-1.162-1.8935-.0604-.6426-1.7822-.6427 1.7822-1.8935.0604 1.4964 1.162z" clip-rule="evenodd"/></g></g><defs><clipPath id="a"><path fill="#fff" d="M0 0h28v20H0z"/></clipPath></defs></svg>
